modules/linea-weather/icons/weather-snow-sun.svg

<svg xmlns="http://www.w3.org/2000/svg" width="64" height="64" viewBox="0 0 64 64"><path fill="none" stroke="#000" stroke-width="2" stroke-miterlimit="10" d="M56 45c4.19 0 7-2.81 7-7 0-4.189-2.81-9-7-9 0-10.475-9.525-18-20-18-9.271 0-17.348 6.211-19 15h-2c-5.238 0-9 4.762-9 10s3.762 9 9 9h41z"/><path fill="none" stroke="#000" stroke-width="2" stroke-miterlimit="10" d="M29.999 11.752A12.945 12.945 0 0 0 22 9C14.82 9 9 14.82 9 22c0 2.577.707 3.979 2 6m-5-6H0M22 6V0M10 10L4 4m20 44v4m0 4v4m4-10l-2 2m-4 4l-2 2m8 0l-2-2m-4-4l-2-2m10 4h-4m-4 0h-4m26-4v4m0 4v4m4-10l-2 2m-4 4l-2 2m8 0l-2-2m-4-4l-2-2m10 4h-4m-4 0h-4"/></svg>

<svg xmlns="http://www.w3.org/2000/svg" width="64" height="64" viewBox="0 0 64 64"><path fill="none" stroke="#000" stroke-width="2" stroke-miterlimit="10" d="M56 45c4.19 0 7-2.81 7-7 0-4.189-2.81-9-7-9 0-10.475-9.525-18-20-18-9.271 0-17.348 6.211-19 15h-2c-5.238 0-9 4.762-9 10s3.762 9 9 9h41z"/><path fill="none" stroke="#000" stroke-width="2" stroke-miterlimit="10" d="M29.999 11.752A12.945 12.945 0 0 0 22 9C14.82 9 9 14.82 9 22c0 2.577.707 3.979 2 6M6 22H0M22 6V0M10 10L4 4M24 48v4M24 56v4M28 50l-2 2M22 56l-2 2M28 58l-2-2M22 52l-2-2M30 54h-4M22 54h-4M44 50v4M44 58v4M48 52l-2 2M42 58l-2 2M48 60l-2-2M42 54l-2-2M50 56h-4M42 56h-4"/></svg>
